public/images/quote.svg

<svg width="32" height="33" viewBox="0 0 32 33" fill="none" xmlns="http://www.w3.org/2000/svg">
  <path
    d="M0 13.7963C0 9.07877 3.83571 5.25781 8.57143 5.25781H9.14286C10.4071 5.25781 11.4286 6.27531 11.4286 7.53474C11.4286 8.79416 10.4071 9.81166 9.14286 9.81166H8.57143C6.36429 9.81166 4.57143 11.5976 4.57143 13.7963V14.3655H9.14286C11.6643 14.3655 13.7143 16.4076 13.7143 18.9193V23.4732C13.7143 25.9849 11.6643 28.027 9.14286 28.027H4.57143C2.05 28.027 0 25.9849 0 23.4732V21.1963V18.9193V13.7963ZM18.2857 13.7963C18.2857 9.07877 22.1214 5.25781 26.8571 5.25781H27.4286C28.6929 5.25781 29.7143 6.27531 29.7143 7.53474C29.7143 8.79416 28.6929 9.81166 27.4286 9.81166H26.8571C24.65 9.81166 22.8571 11.5976 22.8571 13.7963V14.3655H27.4286C29.95 14.3655 32 16.4076 32 18.9193V23.4732C32 25.9849 29.95 28.027 27.4286 28.027H22.8571C20.3357 28.027 18.2857 25.9849 18.2857 23.4732V21.1963V18.9193V13.7963Z"
    fill="#5060EE" />
</svg>

<svg width="32" height="33" viewBox="0 0 32 33" fill="none" xmlns="http://www.w3.org/2000/svg"><path d="M0 13.796C0 9.08 3.836 5.258 8.571 5.258h.572a2.279 2.279 0 0 1 2.286 2.277 2.279 2.279 0 0 1-2.286 2.277H8.57c-2.207 0-4 1.786-4 3.984v.57h4.572c2.521 0 4.571 2.042 4.571 4.553v4.554c0 2.512-2.05 4.554-4.571 4.554H4.57C2.05 28.027 0 25.985 0 23.473v-9.677Zm18.286 0c0-4.717 3.835-8.538 8.571-8.538h.572a2.279 2.279 0 0 1 2.285 2.277 2.279 2.279 0 0 1-2.285 2.277h-.572c-2.207 0-4 1.786-4 3.984v.57h4.572c2.521 0 4.571 2.042 4.571 4.553v4.554c0 2.512-2.05 4.554-4.571 4.554h-4.572c-2.521 0-4.571-2.042-4.571-4.554v-9.677Z" fill="#5060EE"/></svg>
